X:1
T: The Brown Trout
C:Muriel A Johnstone
R:Reel
Q: 232
K:D
M:4/4
L:1/8
|:((3ABc)|d2B2 AF ED|CD EF E2A2|d2cd Bf ed|c2A2 A2 ((3ABc) |
d2B2 AFED|CDEF E2A2|d2fa ge cA|d2f2 d2de|
fdd2 Add2|Bdd2 cd eg|fdd2 Add2|ge cA d2de|
fdd2 Add2|Bdd2 cd eg|fdd2 bg ed|cA Bc d2||
